static/images/hp-header-hand.svg

<svg width="598" height="593" fill="none" xmlns="http://www.w3.org/2000/svg"><path d="M597.109 245.5c-42.384 18.476-94.187 17.061-140.314 14.162l-290.168 13.526C107.7 268.236 57.346 232.974.109 218v374.482h597V245.5z" fill="#F7DBD1"/><path d="M597.156 344c-13.163 7.004-27.004 9.392-41.737 6.493-17.632-3.622-33.451-14.491-51.324-16.906-22.22-3.14-44.078 7.246-66.419 9.057-23.911 1.932-47.701-5.797-71.732-5.434-22.462.362-44.199 7.728-66.299 12.076-29.103 5.796-59.173 6.28-88.397 1.328-16.424-2.656-32.606-7.125-49.15-8.091-18.598-1.087-37.074 2.174-55.551 3.623-24.152 1.812-82.118-8.212-106.39-8.212V592.5H597.08l.075-248.5z" fill="#FFA788"/><path d="M.23 398.794v194.185h596.926V393.36c-36.712 12.801-77.529 8.091-115.811 1.087-38.161-7.004-76.804-16.303-115.448-12.197-26.93 2.898-53.135 12.197-80.307 12.559-25.601.363-50.599-7.245-75.838-11.472-32.485-5.434-65.936-5.434-98.421.121-33.21 5.555-77.408 17.027-111.1 15.336z" fill="#FFDFAF"/><path d="M597.156 459.779c-30.795.121-62.313-8.212-92.745-13.284-50.479-8.332-102.527-7.487-152.764 2.536-28.258 5.676-56.033 14.25-84.412 18.839a310.948 310.948 0 01-93.47.725c-27.171-3.985-53.739-11.473-80.91-15.941-27.172-4.347-66.66-5.555-92.625 3.14v137.065h596.926v-133.08z" fill="#FEF0A5"/><path d="M597.156.757c-3.503 6.521-17.994 26.809-26.81 38.523-8.936 11.834-16.785 24.635-26.084 36.35-16.061 20.046-34.659 40.092-52.29 58.569-17.51 18.355-36.47 36.953-55.309 54.463-15.699 14.612-32.364 15.699-52.169 20.53-20.046 4.83-41.3 8.453-61.83 13.042-15.94 3.502-36.108 18.114-55.671 26.205-18.839 7.729-42.267 10.99-62.313 14.975-9.903 1.932-27.413-2.536-30.674 1.932-7.97 10.868 9.178 21.012 20.771 19.805 12.077-1.208 21.496 1.207 40.576-1.932 11.835-1.933 29.466-13.767 46.614-10.869 11.835 1.932 25.723.966 45.648-3.985-2.777 5.313-8.936 10.144-15.578 15.216-3.864 2.898-13.888 9.782-20.046 15.578-17.873 16.907-26.809 26.809-17.873 34.659 6.4 5.676 26.809 3.019 45.648-15.82 11.955-12.318 41.421-26.809 60.26-26.809 31.277 0 47.942-10.144 74.631-28.258 27.292-18.598 48.908-44.441 76.321-62.917 15.095-10.144 27.896-23.066 43.112-33.21 13.888-9.298 11.835-6.883 23.066-16.786V.757z" fill="#fff"/></svg>

<svg width="598" height="593" viewBox="0 0 598 593" fill="none" xmlns="http://www.w3.org/2000/svg">
<path d="M597.109 245.5C554.725 263.976 502.922 262.561 456.795 259.662L166.627 273.188C107.7 268.236 57.346 232.974 0.109375 218V592.482H597.109V245.5Z" fill="#F7DBD1"/>
<path d="M597.156 344C583.993 351.004 570.152 353.392 555.419 350.493C537.787 346.871 521.968 336.002 504.095 333.587C481.875 330.447 460.017 340.833 437.676 342.644C413.765 344.576 389.975 336.847 365.944 337.21C343.482 337.572 321.745 344.938 299.645 349.286C270.542 355.082 240.472 355.566 211.248 350.614C194.824 347.958 178.642 343.489 162.098 342.523C143.5 341.436 125.024 344.697 106.547 346.146C82.395 347.958 24.4294 337.934 0.15625 337.934V592.5H597.081L597.156 344Z" fill="#FFA788"/>
<path d="M0.230469 398.794V592.979H597.156V393.36C560.444 406.161 519.627 401.451 481.345 394.447C443.184 387.443 404.541 378.144 365.897 382.25C338.967 385.148 312.762 394.447 285.59 394.809C259.989 395.172 234.991 387.564 209.752 383.337C177.267 377.903 143.816 377.903 111.331 383.458C78.1218 389.013 33.923 400.485 0.230469 398.794Z" fill="#FFDFAF"/>
<path d="M597.156 459.779C566.361 459.9 534.843 451.567 504.411 446.495C453.932 438.163 401.884 439.008 351.647 449.031C323.389 454.707 295.614 463.281 267.235 467.87C236.32 472.821 204.801 473.063 173.765 468.595C146.594 464.61 120.026 457.122 92.8547 452.654C65.6833 448.307 26.1942 447.099 0.230469 455.794V592.859H597.156V459.779Z" fill="#FEF0A5"/>
<path d="M597.156 0.756883C593.653 7.27802 579.162 27.566 570.346 39.2799C561.41 51.1145 553.561 63.9153 544.262 75.6292C528.201 95.6756 509.603 115.722 491.972 134.199C474.462 152.554 455.502 171.152 436.663 188.662C420.964 203.274 404.299 204.361 384.494 209.192C364.448 214.022 343.194 217.645 322.664 222.234C306.724 225.736 286.556 240.348 266.993 248.439C248.154 256.168 224.726 259.429 204.68 263.414C194.777 265.346 177.267 260.878 174.006 265.346C166.036 276.214 183.184 286.358 194.777 285.151C206.854 283.943 216.273 286.358 235.353 283.219C247.188 281.286 264.819 269.452 281.967 272.35C293.802 274.282 307.69 273.316 327.615 268.365C324.838 273.678 318.679 278.509 312.037 283.581C308.173 286.479 298.149 293.363 291.991 299.159C274.118 316.066 265.182 325.968 274.118 333.818C280.518 339.494 300.927 336.837 319.766 317.998C331.721 305.68 361.187 291.189 380.026 291.189C411.303 291.189 427.968 281.045 454.657 262.931C481.949 244.333 503.565 218.49 530.978 200.014C546.073 189.87 558.874 176.948 574.09 166.804C587.978 157.506 585.925 159.921 597.156 150.018V0.756883Z" fill="white"/>
</svg>
